!!!!SEGMENT: pl-wnifc--6634-n--004_oginski-michal-kleofas--4-les-adieux.krn
!!!cenid: 18xx:4000
!!!COM: Ogiński, Michał Kleofas
!!!COM-rismID: pe30002379
!!!CDT: 1765/09/25-1833/10/15
!!!CNT:
!!!OTL: 4. Les Adieux
!!!PDT:
!!!AGN:
!!!SMS-siglum: PL-Wnifc
!!!SMS-shelfmark: 6634/n
!!!SMS-shelfwork: 004 W
!!!SMS-variant:
!!!SMS-altvar:
!!!NIFC-rismSourceID: 1001148599
!!!NIFC-islandoraID: nifc:212915
!!!URL-pdf-islandora: https://repozytorium.nifc.pl/islandora/object/nifc%3A212915/datastream/PDF/view
!!!URL-scan: https://polish.musicsources.pl/pl/lokalizacje/galeria/druki-muzyczne/16872 @EN{Scan on Polish Music Sources Website} @PL{Skany w portalu Dziedzictwo Muzyki Polskiej w otwartym dostępie}
!!!ONB-nifc: UWAGA: str. 9
!!!AIN: 1 violn
!!!key: a
**kern	**fing	**dynam
*I"Violon.	*	*
*I'vl	*	*
*ICstr	*	*
*Ivioln	*	*
*clefG2	*	*
*k[]	*	*
*a:	*	*
*M3/4	*	*
=1	=1	=1
4.eeu\	.	p
16dd#X\LL	.	.
16ee\JJ	.	.
8ff\L	.	.
8ee\J	.	.
=2	=2	=2
8cc\L	.	.
(16cc\L	.	.
16b\JJ)	.	.
4.a/	.	.
8cc\	.	.
=3	=3	=3
8ee\L	.	.
8ee\J	.	.
4.aa\	.	.
8ee\	.	.
=4	=4	=4
8gg\L	.	.
8ff#X\J	.	.
4.ffn\	.	.
8dd\	.	.
=5	=5	=5
8.bb^\L	.	.
16aa\Jk	.	.
8.gg#X^\L	.	.
16ff\Jk	.	.
8.ee^\L	.	.
16dd\Jk	.	.
!LO:LB:g=original	!	!
=6	=6	=6
8.ee\L	.	.
16dd\Jk	.	.
4.cc\	.	.
8a/	.	.
=7	=7	=7
(16b\LL	.	.
16cc\	.	.
16b\	.	.
16a\JJ	.	.
16b\LL	.	.
16dd\	.	.
16ff\	.	.
16ee\JJ	.	.
16dd\LL	.	.
16cc\	.	.
16b\	.	.
16cc\JJ)	.	.
=8	=8	=8
(>16a\LL	.	.
16cc\	.	.
16ee\	.	.
16aa\JJ)	.	.
4.ccc^<\	4	.
8av/	.	.
=9	=9	=9
(16b\LL	.	.
16cc\	.	.
16b\	.	.
16a\JJ	.	.
16b\LL	.	.
16dd\	.	.
16ff\	.	.
16ee\JJ	.	.
16dd\LL	.	.
16cc\	.	.
16b\	.	.
16a\JJ)	.	.
!LO:LB:g=original	!	!
=10	=10	=10
(16g#X/LL	.	.
16a/	.	.
16b/	.	.
16g#/JJ)	.	.
(4b^>/	.	f
8a/)	.	.
8r	.	.
=11:|!|:	=11:|!|:	=11:|!|:
8g#Xu/L	.	.
8b/J	.	.
4.ee^\	4	.
8dd\	.	.
=12	=12	=12
4.cc\	.	.
(16ff\LL	.	.
16ee\JJ	.	.
16dd\LL	.	.
16cc\	.	.
16b\	.	.
16a\JJ)	.	.
=13	=13	=13
(16g#X/LL	.	.
16e/	.	.
16g#/	.	.
16b/JJ)	.	.
(4.ee\	4	.
8dd\)	.	.
=14	=14	=14
4cc\	.	.
16r	.	.
(16ee\LL	.	.
16ff\	.	.
16ee\JJ)	.	.
(16dd\LL	.	.
16cc\)	.	.
16b'\	.	.
16a'\JJ	.	.
!LO:LB:g=original	!	!
=15	=15	=15
8g#X/	.	.
(16d#X/LL	.	.
16e/JJ	.	.
16g#\LL	.	<
16b\	.	.
16dd\	.	.
16cc\JJ	.	.
16b\LL	.	.
16dd\	.	.
16ff\	.	.
16ee\JJ)	.	.
=16	=16	=16
(16dd\LL	.	.
16gg#X\	.	.
16bb\	.	.
16aa\JJ	.	.
16gg#\LL)	.	.
(16b\	.	.
16dd\	.	.
16cc\JJ	.	.
16b\LL	.	[
16dd\	.	.
16ff\	.	.
16ee\JJ)	.	.
=17	=17	=17
(>16qqg#X/LL	.	.
16qqb/JJ	.	.
4.eeu\)	4	.
8ee\L	.	.
8ee\	.	.
8ee\J	.	.
=18	=18	=18
4.ee\	.	.
!LO:TX:a:i:t=riten.	!	!
8ee\L	.	.
8ee\	.	.
8ee\J	.	.
!LO:LB:g=original	!	!
=19	=19	=19
!LO:TX:a:B:t=a tempo	!	!
4.eeu\	.	p
16dd#X\LL	.	.
16ee\JJ	.	.
8ff\L	.	.
8ee\J	.	.
=20	=20	=20
8cc\L	.	.
(16cc\L	.	.
16b\JJ)	.	.
4.a/	.	.
8cc\	.	.
=21	=21	=21
8ee\L	.	.
8ee\J	.	.
4.aa\	.	.
8ee\	.	.
=22	=22	=22
8gg\L	.	.
8ff#X\J	.	.
4.ffn\	.	.
8dd\	.	.
=23	=23	=23
8.bb^\L	.	.
16aa\Jk	.	.
8.gg#X^\L	.	.
16ff\Jk	.	.
8.ee^\L	.	.
16dd\Jk	.	.
=24	=24	=24
8.ee\L	.	.
16dd\Jk	.	.
4.cc\	.	.
8a/	.	.
!LO:LB:g=original	!	!
=25	=25	=25
(16b\LL	.	.
16cc\	.	.
16b\	.	.
16a\JJ	.	.
16b\LL	.	.
16dd\	.	.
16ff\	.	.
16ee\JJ	.	.
16dd\LL	.	.
16cc\	.	.
16b\	.	.
16cc\JJ)	.	.
=26	=26	=26
(16a\LL	.	.
16cc\	.	.
16ee\	.	.
16aa\JJ)	.	.
4.ccc^<\	4	.
8av/	.	.
=27	=27	=27
(16b\LL	.	.
16cc\	.	.
16b\	.	.
16a\JJ	.	.
16b\LL	.	.
16dd\	.	.
16ff\	.	.
16ee\JJ	.	.
16dd\LL	.	.
16cc\	.	.
16b\	.	.
16a\JJ)	.	.
=28	=28	=28
(16g#X/LL	.	.
16a/	.	.
16b/	.	.
16g#/JJ)	.	.
(4b^>/	.	f
8a/)	.	.
8r	.	.
!LO:LB:g=original	!	!
=29:|!	=29:|!	=29:|!
*M3/4	*	*
!LO:TX:a:B:t=Trio.	!	!
[4au/	.	f
16a/]	.	.
(16e/LL	.	.
16f#X/	.	.
16g/JJ	.	.
16a/LL	.	.
16b/	.	.
16cc/	.	.
16a/JJ)	.	.
=30	=30	=30
[4b\	.	.
16b\]	.	.
(16e/LL	.	.
16g#X/	.	.
16a/JJ	.	.
16b\LL	.	.
16cc\	.	.
16dd\	.	.
16b\JJ)	.	.
=31	=31	=31
[4cc\	.	<
16cc\]	.	.
(16gn/LL	.	.
16a/	.	.
16b/JJ	.	.
16cc\LL	.	.
16dd\	.	.
16ee\	4	.
16cc\JJ)	.	.
=32	=32	=32
[4dd\	.	.
16dd\]	.	.
(16g/LL	.	.
16b/	.	.
16cc/JJ	.	.
16dd\LL	.	.
16ee\	.	.
16ff\	.	.
16dd\JJ)	.	.
!LO:LB:g=original	!	!
=33	=33	=33
(8qff/	.	f
8.ee\L)	.	.
16dd#X\K	.	.
8ee\	.	.
8ff\	.	.
8ee\	.	.
8ddn\J	.	.
=34	=34	=34
8cc\L	.	.
(16cc\L	.	.
16b\JJ	.	.
4.a/)	.	.
8cc\	.	.
=35	=35	=35
8b\L	.	.
(16b\L	.	.
16ee\JJ)	4	.
4.e/	.	.
8g#X/	.	.
=36	=36	=36
(8qb/	.	.
(16a/LL)	.	.
16g#X/	.	.
16a/	.	.
16b/JJ)	.	.
(16cc\LL	.	.
16b\	.	.
16cc\	.	.
16dd\JJ)	.	.
8ee\L	4	.
8cc\J	.	.
=37	=37	=37
8b\L	.	.
(16b\L	.	.
16ee\JJ)	4	.
4.e/	.	.
8g#X/	.	.
=38	=38	=38
(8qb/	.	.
(16a/LL)	.	.
16g#X/)	.	.
16cc/	.	.
16b/JJ	.	.
(4b/	.	sf
8a/)	.	.
8r	.	.
=39:|!|:	=39:|!|:	=39:|!|:
8ccu\L	.	ff
16cc\L	.	.
16cc\JJ	.	.
8cc\L	.	.
8cc\J	.	.
8dd\L	.	f
8dd\J	.	.
=40	=40	=40
8ee\L	.	.
16ee\L	.	.
16ee\JJ	.	.
8ee\L	.	.
8ee\J	.	.
8ff\L	.	.
8ff\J	.	.
=41	=41	=41
8gg\L	.	>
16gg\L	.	.
16gg\JJ	.	.
8gg\L	.	.
8gg\J	.	.
8ff\L	.	.
8ff\J	.	]]
!LO:LB:g=original	!	!
=42	=42	=42
8ee\L	.	.
16ee\L	.	.
16ee\JJ	.	.
!	!	!LO:HP:b:t=dim.
8ee\L	.	>
8ee\J	.	.
8dd\L	.	.
8dd\J	.	.
=43	=43	=43
8cc\L	.	.
16cc\L	.	.
16cc\JJ	.	.
8cc\L	.	>
8cc\J	.	.
8b\L	.	]
8ee\J	4	.
=44	=44	=44
!LO:TX:a:i:t=riten.	!	!
8cc\L	.	.
16cc\L	.	.
16cc\JJ	.	.
8cc\L	.	.
8cc\J	.	.
8b/L	.	.
8e/J	.	.
=45	=45	=45
[4a/	.	f
16a/]	.	.
!LO:TX:a:B:i:t=a tempo	!	!
(16e/LL	.	.
16f#X/	.	.
16g#X/JJ	.	.
16a/LL	.	.
16b/	.	.
16cc/	.	.
16a/JJ)	.	.
!LO:LB:g=original	!	!
=46	=46	=46
[4b\	.	.
16b\]	.	.
(16e/LL	.	.
16g#X/	.	.
16a/JJ	.	.
16b\LL	.	.
16cc\	.	.
16dd\	.	.
16b\JJ)	.	.
=47	=47	=47
[4cc\	.	<
16cc\]	.	.
(16gn/LL	.	.
16a/	.	.
16b/JJ	.	.
16cc\LL	.	.
16dd\	.	.
16ee\	4	.
16cc\JJ)	.	.
=48	=48	=48
[4dd\	.	.
16dd\]	.	.
(16g/LL	.	.
16b/	.	.
16cc/JJ	.	.
16dd\LL	.	.
16ee\	.	.
16ff\	.	.
16dd\JJ)	.	.
=49	=49	=49
(8qff/	.	f
8.ee\L)	.	.
16dd#X\K	.	.
8ee\	.	.
8ff\	.	.
8ee\	.	.
8ddn\J	.	.
!LO:LB:g=original	!	!
=50	=50	=50
8cc\L	.	.
(16cc\L	.	.
16b\JJ	.	.
4.a/)	.	.
8cc\	.	.
=51	=51	=51
8b\L	.	.
(16b\L	.	.
16ee\JJ)	4	.
4.e/	.	.
8g#X/	.	.
=52	=52	=52
(8qb/	.	.
(16a/LL)	.	.
16g#X/	.	.
16a/	.	.
16b/JJ)	.	.
(16cc\LL	.	.
16b\	.	.
16cc\	.	.
16dd\JJ)	.	.
8ee\L	4	.
8cc\J	.	.
=53	=53	=53
8b\L	.	.
(16b\L	.	.
16ee\JJ)	4	.
4.e/	.	.
8g#X/	.	.
=54	=54	=54
(8qb/	.	.
(16a/LL)	.	.
16g#X/)	.	.
16cc/	.	.
16b/JJ	.	.
(4b/	.	sf
8a/)	.	.
8r	.	.
=:|!	=:|!	=:|!
*-	*-	*-
!!!RDF**kern: > = above
!!!RDF**kern: < = below
!!!ENC: Filip Voros
!!!END: 2022-07-31
!!!ENC: Jan Barakat
!!!END: 2022-08-27!!!YEC: Copyright 2022 Narodowy Instytut Fryderyka Chopina (https://polishscores.org)
!!!YEM: Licence CC BY 4.0 (https://creativecommons.org/licenses/by/4.0)
